X:5716
T:Gan Ainm
R:Reel
S:
H:
N:
D:Clare FM
Z:Adrian Scahill
M:4/4
L:1/8
K:G
G3A Bdd2|edgd edge|d3e (3ded BG|AcBA GEED|\
G3A Bdd2|edge dega|bgaf gedg|(3ege dB AcBA||\
:BFAF E3D|B,EGF EGFD|EBB2 BGEG|FAdB AGFA:||
